X: 13647
T: Follow Me Down
R: reel
M: 4/4
K: Bminor
BcBA FA~A2|~B3c dgfe|dccA FA~A2|1 afec dBBA:|2 afec dBeg||
fddg fdad|cA~A2 cdeg|fddF (3Bcd ba|afec dB~B2|
bafa afec|dcdA FAAF|~B3c dfba|afec dBBA||
BcBA FAec|~B3c dgfe|decA FAa^g|1 afec dBBA:|2 afec f~g2g||
~f3e (3f^ga ed|cA~A2 cdeg|~f3f faba|afec dBBb|
bafa afec|dcdA FAec|~B3c dfba|afec dBBA||

